X: 41541
T: Under The Tholsel
R: reel
M: 4/4
K: Gmajor
|:B/c/dcA B~G3|FGAB c~A3|FGAF D2FD|~G3A BGG2|
B/c/dcA B~G3|FGAB c~A3|deed ~f3e|dcAF G4:|
|:a3g fede|edad f~d3|~a3g fedc|deed ~g2g2|
b~g3 f~d3|c~A3 B~G3|FGAB c~A3|dBcA G4:|

